X:1
T:Ascension
T:Joseph Hart, 1759                        77. 77. 
T:Transcribed from Divine Songs, 1789.
T:D Major                       Abraham Wood, 1789 
%%score [ 1 2 3 ]
L:1/8
Q:1/4=90
M:2/4
K:D
V:1 treble nm="Tr." snm="Tr."
V:2 treble-8 nm="T." snm="T."
V:3 bass nm="B." snm="B."
V:1
"^\n"!mf! A3 A | d3 d | f3 e | d4 | d3 A | A2 F2 | A2 B2 | B4 | d3 B | B2 B2 | d2 ed |{d} c4 | %12
 d3 f | fe dB | A2 A2 | A4 | z4 |"^Soft"!p! d3 e | f3 e | d3 c | B2 z2 |"^Loud"!f! a3 g/f/ | e3 d | %23
 f2 f2 | f2 z2 | D2 A2 | ec A2 | B2 c2 | d4 | z4 | z4 |"_Hail him, hail him\n" f2 f2 | A2 A2 | z4 | %34
 z4 | %35
"_Hail  him   as   he  passes  by.                   Hail  him  as      he        passes  by. \n\n" b2 bf | %36
 d2 A2 | d2 d2 | d4 | z4 | d2 df | e2 d2 | B2 A2 | A4 | z4 ||[M:2/2]!mf! D3 E F3 A | d3 d c4 | %47
 c3 e d2 d2 | d2 c2 d4 | c3 e e3 e | e3 e f4 | e3 c A2 F2 | (DFAB/c/ d2) c2 | d8 ||[M:2/4] d3 A | %55
 d3 c | d d d z | c3 e | f3 e | d d d z |"^Loud"!f! d3 e | f3 f | e2 e2 | e4 | f2 f2 | e2 A2 | %66
 G2 A2 | (dd ee | ff f2) | %69
"_All the blissful,           All the blissful  re – gions         ring.\n" d2 A2 | d2 d2 | z4 | %72
 A2 A2 | d2 c2 | d2 ef/g/ | f4 | z4 | d3 f | a3 A | d2 c2 | d4 | d3 e | f2 e2 | e2 e2 | e4 | %85
 B2 B2 | A2 F2 | A2 e2 | c4 | f2 d2 | d2 B2 | A2 A2 | A4 | z4 || %94
[M:3/4]"^Maestoso"[Q:1/4=80]"^\n" d4 f2 | e4 g2 | (f2 ed) c2 | d4 z2 | e4 d2 | c4 d2 | e4 e2 | %101
 e4 z2 | f4 a2 | a4 g2 | (g3 f) fe/g/ | f4 z2 | f4 a2 | (g2 f2) e2 | d2 c4 | d6 |] %110
V:2
!mf!"_Je – sus,   our  tri –um –phant head, Ris'n victorious from the dead, To  the  realms  of     glo – ry's  gone,   To    a – scend  his    rightful\n\n" A3 d | %1
 A3 F | A3 d | A4 | (d f2) e | d2 A2 | F2 E2 | F4 | B3 e | e2 de/f/ | g2 gf |{f} e4 | f3 a | %13
 ag fe | d2 c2 | %15
"_throne.     Cherubs    on    the  conqueror  gaze,   Seraphs glow with brighter  blaze.  Each bright order     of   the   sky     Hail  him   as   he\n" d4 | %16
 z4 |!p! A3 G | F3 B | B3 G | E2 z2 |!f! e3 d | c3 d | f2 f2 | f2 z2 | fa d2 | ce A2 | d2 ef | g4 | %29
 a2 af | d2 A2 |"_passes  by.\n" d2 d2 | d4 | z4 | z4 | z4 | z4 | z4 | %38
"_Hail him, hail him, hail him   as    he      passes  by.\n" A2 A2 | d2 d2 | f2 fd | ec Ag | %42
 f2 e2 | d4 | z4 ||[M:2/2]!mf!"_Saints  the  glorious\n\n" D3 E F3 F | %46
"_triumph  meet;  See their en'mies at his feet. By his scars his toils are viewed, And his garments\n\n" G3 G E4 | %47
 A3 G F2 D2 | F2 E2 D4 | A3 B B3 E | B3 =c B4 | A3 c d2 A2 | %52
"_rolled _______  in blood.      Heav'n its\n\n" (dAFD F2) E2 | D8 ||[M:2/4] A3 d | %55
"_King congratulates; Opens wide her golden gates.  Angels songs of    victory  sing;  All  the  bliss–ful     regions     ring._____________\n\n" f3 e | %56
 d d d z | e3 c | d3 A | B B B z |!f! f3 e | a3 a | a2 ^g2 | a4 | a2 a2 | af da | gf e2 | (ff ee | %68
 dd d2) | z4 | z4 | %71
"_All the blissful regions ring._________________        Sinners, join the heav'nly powers: For redemption all is ours. None but\n" d2 A2 | %72
 d2 d2 | f2 e2 | (ff f/g/f/e/ | dd d2) | z4 | d3 A | F3 d | F2 E2 | D4 | A3 c | d2 A2 | B2 B2 | %84
 A4 | d2 d2 | %86
"_burdened sinners prove Blood-bought pardon, dying love.           Hail thou dear, thou   worthy     Lord;      Holy  Lamb, incarnate  Word!\n" c2 A2 | %87
 d2 c2 | A4 | d2 A2 | GB G2 | F2 E2 | D4 | z4 ||[M:3/4] A4 F2 | B4 E2 | G4 F2 | B4 z2 | c4 B2 | %99
 A4 d2 | c4 B2 | A4 z2 | %102
"_Hail   thou    suffering    Son          of           God!        Take  the     trophies     of   thy     blood.\n" d4 e2 | %103
 f4 B2 | e4 A2 | d4 z2 | d4 e2 | (B2 A2) G2 | F2 E4 | D6 |] %110
V:3
!mf! D,3 D, | D,3 D, | D,2 D,2 | D,4 | D3 D | D2 D,2 | F,2 E,2 | B,,4 | G,3 G, | E,2 B,2 | %10
 G,2 G,2 | A,4 | D3 D | D2 G,2 | A,2 A,,2 | D,4 | z4 |!p! D,3 D, | D,2 D,2 | G,2 G,2 | G,2 z2 | %21
!f! A,3 A, | A,3 D, | D2 D2 | D2 z2 | D2 D,2 | E,2 F,2 | B,2 A,2 | G,4 |"_Hail him,\n\n" D,2 D,2 | %30
 z4 | z4 |"_Hail him as  he  passes   by.\n" D,2 D,2 | A,2 A,2 | D2 D2 | D4 | z4 | z4 | %38
"_Hail him             hail  him    as      he      passes   by.\n" D,2 D,2 | z4 | D,2 D,2 | %41
 E,2 F,B, | G,2 A,2 | D,4 | z4 ||[M:2/2]!mf! D,3 D, D,2 D,2 | G,,2 G,,2 A,,4 | A,,3 A,, D,2 B,,2 | %48
 G,,2 A,,2 D,4 | F,3 E, E,3 E, | E,3 E, B,,4 | A,3 A, D,2 D,2 | (B,,2 A,,2 G,,2) A,,2 | D,8 || %54
[M:2/4] D,3 D, | D,3 D, | D, D, D, z | A,3 A, | D,3 D, | G, G, G, z |!f! D3 D | D3 D | E2 E,2 | %63
 A,4 | D2 D2 | A,2 A,2 | B,2 C2 | (DD A,A, | D,D, D,2) | z4 | z4 | z4 | %72
"_All  the blissful re  – gions          ring.\n" D,2 D,2 | D,2 A,2 | D2 A,2 | D,4 | z4 | D,3 D, | %78
 A,3 A, | A,2 A,,2 | D,4 | D,3 C, | B,,2 C,2 | E,2 E,2 | A,,4 | G,2 G,2 | A,2 A,2 | A,2 A,2 | %88
 A,,4 | D,2 F,2 | G,2 G,,2 | A,,2 A,,2 | D,4 | z4 ||[M:3/4] D,4 D,2 | E,4 E,2 | E,4 F,2 | B,,4 z2 | %98
 A,4 B,2 | F,4 D,2 | A,4 E,2 | A,4 z2 | D,4 A,2 | D4 G,2 | E,4 F,E, | D,4 z2 | D,4 A,2 | %107
 (E,2 F,2) G,2 | A,2 A,,4 | D,6 |] %110

